mailbox.svg

<svg fill="currentColor" viewBox="0 0 24 24"><path d="M17 4H7a5 5 0 0 0-5 5v11h18a2 2 0 0 0 2-2V9a5 5 0 0 0-5-5m-7 14H4V9a3 3 0 0 1 3-3 3 3 0 0 1 3 3zm9-3h-2v-2h-4v-2h6zM9 11H5V9h4z"/></svg>

<svg  viewBox="0 0 24 24" fill="currentColor"><path  d="M17,4H7A5,5 0 0,0 2,9V20H20A2,2 0 0,0 22,18V9A5,5 0 0,0 17,4M10,18H4V9A3,3 0 0,1 7,6A3,3 0 0,1 10,9V18M19,15H17V13H13V11H19V15M9,11H5V9H9V11Z"/></svg>
